X:139
T:A Prince(?)Reel
O:No 139 William Clarke of Feltwell
M:4/4
L:1/8
N:B music(once) followed by one A
K:G
g2d>c B<d dg|e<c A>G FA A2|g2d>c Bed^d|egfag2g2::a2ag faa2|b2ba gbb2|c'2c'ab2bg|abag fdef||


